X:1
T:The Angel’s Song
T:The Angel’s Song
T:Robert Lowry
T:Robert Lowry, 1877
T:Public Domain Courtesy of the Cyber Hymnal™
T:Public Domain Courtesy of the Cyber Hymnal™
C:Robert Lowry
Z:Public Domain
Z:Courtesy of the Cyber Hymnal™
%%score ( 1 2 ) ( 3 4 )
L:1/8
M:12/8
K:Ab
V:1 treble 
V:2 treble 
V:3 bass 
V:4 bass 
V:1
 (EF)[CG] | [CA]3 [CA]6 ([CA][Ec])[CE] | [EA]3 [EA]6 ([CE][EA])[EB] | %3
w: 1.~Roll- * ing|down- ward, through * the|mid- night, Comes * a|
w: 2.~Wonder- * ing|shep- herds see * the|glo- ry, Hear * the|
w: 3.~Christ * the|Sav- ior, God’s * A-|noint- ed, Comes * to|
 [Ec]3 [Ee]3 [Ee]2 [Ec] (cB)[_DA] | [EB]6- [EB]3 (EF)[DG] | [CA]3 [CA]6 ([CA][Ec])[CE] | %6
w: glor- ious burst of heav’n- * ly|song; * ’Tis * a|cho- rus full * of|
w: word the shin- ing ones * de-|clare; * At * the|man- ger fall * in|
w: earth our fear- ful debt * to|pay— * Man * of|sor- rows, and * re-|
 [EA]3 [EA]6 ([CA][DB])[Ec] | [EB]3 [Ec]3 [EB]2 [EG] ([FA][EG])[=DF] | E6- E3 || %9
w: sweet- ness— And * the|sin- gers are an an- * gel|throng. *|
w: wor- ship, While * the|mu- sic fills the quiver- * ing|air. *|
w: ject- ed, Lamb * of|God, that takes our sin * a-|way. *|
"^Refrain" (EG)[EB] | [Ed]3 [Ed]6 (dc)[EB] | [Ec]3 [Ec]6 ([Ec][DB])[CA] | %12
w: |||
w: “Glo- * ry!|glo- ry in * the|high- est! On * the|
w: |||
 [EB]3 [EB]3 [DB]2 [CA] [DG]2 [CA] | [EB]6- [EB]3 (EF)[DG] | [CA]3 [CA]6 ([CA][DB])[Ec] | %15
w: |||
w: earth good- will and peace to|men!” * Down * the|ag- es send * the|
w: |||
 [Fd]3 !>![Fd]6 ([Fd][_Ge])[Af] | [Ae]3 [Ac]3 [Gc]3- [Gc]2 [EB] | [EA]6- [EA]3 |] %18
w: |||
w: e- cho; Let * the|glad earth shout * a-|gain! *|
w: |||
V:2
 C2 x | x12 | x12 | x9 =D2 x | x9 D2 x | x12 | x12 | x12 | E6- E3 || E2 x | x9 E2 x | x12 | x12 | %13
 x9 D2 x | x12 | x12 | x12 | x9 |] %18
V:3
 [A,,A,]2 [A,,A,] | [A,,A,]3 [A,,A,]6 [A,,A,]2 [A,,A,] | [A,,C]3 [A,,C]6 A,2 [E,G,] | %3
w: ~ ~|~ ~ ~ ~|~ ~ ~ ~|
 A,3 [A,C]3 [A,C]2 A, [F,A,]2 [F,B,] | [E,G,]6- [E,G,]3 (G,A,)[E,B,] | %5
w: ~ ~ ~ ~ ~ ~|~ * ~ * ~|
 [A,,A,]3 [A,,A,]6 [A,,A,]2 [A,,A,] | [A,,C]3 [A,,C]6 [A,,A,]2 [A,,A,] | %7
w: ~ ~ ~ ~|~ ~ ~ ~|
 [E,G,]3 [E,A,]3 [E,G,]2 [E,B,] [B,,B,]2 [B,,A,] | [E,G,]6- [E,G,]3 || (G,B,)[E,G,] | %10
w: ~ ~ ~ ~ ~ ~|~ *|~ * ~|
 [E,B,]2 [E,B,] [E,B,]2 [E,B,] [E,B,]2 [E,B,] (B,A,)[E,G,] | A,3 A,6 A,2 A, | %12
w: “Glo- ry! glo- ry! glo- ry!” ~ * ~|~ ~ ~ ~|
 [E,G,]3 [E,G,]3 [E,G,]2 [E,A,] [E,B,]2 [E,A,] | [E,G,]6- [E,G,]3 (G,A,)[E,B,] | %14
w: ~ ~ ~ ~ ~ ~|~ * ~ * ~|
 [A,,A,]2 [A,,A,] [A,,A,]2 [A,,A,] [A,,A,]2 [A,,A,] A,2 A, | [D,A,]3 [D,A,]6 [D,A,]2 [D,D] | %16
w: ag- es, down the ag- es * *||
 [E,C]3 [E,C]3 [E,C]3- [E,C]2 [E,D] | [A,,C]6- [A,,C]3 |] %18
w: ||
V:4
 x3 | x12 | x9 (A,,C,) x | A,3 x2 A, x6 | x9 E,2 x | x12 | x12 | x12 | x9 || E,2 x | x9 E,2 x | %11
 A,3 A,6 A,2 A, | x12 | x9 E,2 x | x9 A,2 A, | x12 | x12 | x9 |] %18

